X: 10511
Q: "Con Spirito"
M: 6/8
L: 1/8
K: D
d2d B2G | F2G A2=c | B2d ^ceg | {g}f3- f2A |\
d2d "^>"f2d | !f!B2B "^>"e2d | c2c (TBA B) | A2z z2 |]
!p!A |\
e2c A2A | f2d A2A | c2d g2f | e3- e2A |\
e3 e3 | ea2- a2e | ece ece | eg2- gag |
fdz zzf | eAz zz!f!g | fdz zzf | eAz zzA |\
dff dff | d2z d2z | dff dff | fHaz zA/G/F/E/ |
f2f (ede) | a3 Tg3 | f2f (ede) | d3- d2 |]


